X:5
T:Pilatus-Rigler Schottisch  G (5letras transposed)
%%MIDI program 21
R:shottische
M:2/4
L:1/8
K:G transpose=3 %%MIDI gchordon
"G"G2B2 | d3e/2d/2 | "D7"^cd ef | "G".g2GB || "G"d2^cd | "D7"e2dA | "G"c>B BA | B3c | "D7"B>A A^G | A3B | 
"G"A>G GF | G2GB | d2^cd | "D7"e2 dA | "G"c>B BA | B2zB | "D"AA/2A/2 AA | "E7"BB/2B/2 "A7"B^c | "D"d^c dc | 
d2d>d || "D7"d2^d2 | e2f2 | "G"g>G Be | d2d^d | "D7"e>F FF | F2d^d | "G"e>G GG | G2d>d | "D7"d2^d2 | 
e2f2 | "G"g>G Be | d3B | "D7"d2f>e | dc BA | "G"GB/2c/2 "D7"de/2f/2 | "G".g2G2 |: "C"E2Gc | e2dc | "G7"B>B AG | 
B3G |1 B>B BG | BG AB | "C"c>B AG | c3G :|2 "G7"B>B AG | FG AB | "C".c2 "G7"GA/2B/2 | "C"ce cz |] 
% st09390

